icons/outline/mood-cog.svg

<!--
tags: [emotion, feeling, happy, gear, preferences, face]
category: Mood
version: "2.7"
unicode: "f7b4"
-->
<svg
  xmlns="http://www.w3.org/2000/svg"
  width="24"
  height="24"
  viewBox="0 0 24 24"
  fill="none"
  stroke="currentColor"
  stroke-width="2"
  stroke-linecap="round"
  stroke-linejoin="round"
>
  <path d="M21 12a9 9 0 1 0 -8.983 9m5.984 -3m-2 0a2 2 0 1 0 4 0a2 2 0 1 0 -4 0m2 -3.5v1.5m0 4v1.5m3.031 -5.25l-1.299 .75m-3.463 2l-1.3 .75m0 -3.5l1.3 .75m3.463 2l1.3 .75m-12.033 -9.75h.01m5.99 0h.01m-5.51 5c.658 .64 1.56 1 2.5 1" />
</svg>

<!--
tags: [emotion, feeling, happy, gear, preferences, face]
category: Mood
version: "2.7"
unicode: "f7b4"
-->
<svg
  xmlns="http://www.w3.org/2000/svg"
  width="24"
  height="24"
  viewBox="0 0 24 24"
  fill="none"
  stroke="currentColor"
  stroke-width="2"
  stroke-linecap="round"
  stroke-linejoin="round"
>
    <path d="M21 12a9 9 0 1 0 -8.983 9M18.001 18m-2 0a2 2 0 1 0 4 0a2 2 0 1 0 -4 0M18.001 14.5v1.5M18.001 20v1.5M21.032 16.25l-1.299 .75M16.27 19l-1.3 .75M14.97 16.25l1.3 .75M19.733 19l1.3 .75M9 10h.01M15 10h.01M9.5 15c.658 .64 1.56 1 2.5 1" />
</svg>
